icons/svg/seamark/notice_prohibition_noconvoyovertaking.svg

<?xml version="1.0" encoding="UTF-8" standalone="no"?>
<svg
   xmlns:dc="http://purl.org/dc/elements/1.1/"
   xmlns:cc="http://creativecommons.org/ns#"
   xmlns:rdf="http://www.w3.org/1999/02/22-rdf-syntax-ns#"
   xmlns:svg="http://www.w3.org/2000/svg"
   xmlns="http://www.w3.org/2000/svg"
   xmlns:sodipodi="http://sodipodi.sourceforge.net/DTD/sodipodi-0.dtd"
   xmlns:inkscape="http://www.inkscape.org/namespaces/inkscape"
   width="320"
   height="320"
   id="svg2"
   version="1.1"
   inkscape:version="0.48.4 r9939"
   sodipodi:docname="notice_prohibition_noconvoyovertaking.svg">
  <defs
     id="defs13">
    <inkscape:path-effect
       effect="gears"
       id="path-effect3774"
       is_visible="true"
       teeth="6"
       phi="-1.2" />
    <inkscape:path-effect
       effect="bend_path"
       id="path-effect3772"
       is_visible="false"
       bendpath="m 95.790098,316.51174 c 144.429032,-206.42506 223.313032,-11.7428 339.548092,0"
       prop_scale="1.19"
       scale_y_rel="false"
       vertical="false"
       bendpath-nodetypes="cc" />
    <inkscape:path-effect
       effect="spiro"
       id="path-effect3775"
       is_visible="true" />
    <inkscape:path-effect
       effect="spiro"
       id="path-effect3775-9"
       is_visible="true" />
    <inkscape:path-effect
       effect="spiro"
       id="path-effect3775-3"
       is_visible="true" />
    <inkscape:path-effect
       effect="spiro"
       id="path-effect3775-3-4"
       is_visible="true" />
    <inkscape:path-effect
       effect="spiro"
       id="path-effect3775-0-2-5"
       is_visible="true" />
    <inkscape:path-effect
       effect="spiro"
       id="path-effect3775-0-3"
       is_visible="true" />
    <inkscape:path-effect
       effect="spiro"
       id="path-effect3775-0-3-3"
       is_visible="true" />
    <inkscape:path-effect
       effect="spiro"
       id="path-effect3775-0-2-5-5"
       is_visible="true" />
  </defs>
  <sodipodi:namedview
     pagecolor="#ffffff"
     bordercolor="#666666"
     borderopacity="1"
     objecttolerance="10"
     gridtolerance="10"
     guidetolerance="10"
     inkscape:pageopacity="0"
     inkscape:pageshadow="2"
     inkscape:window-width="1920"
     inkscape:window-height="1004"
     id="namedview11"
     showgrid="true"
     inkscape:zoom="1.6275861"
     inkscape:cx="296.74718"
     inkscape:cy="184.65153"
     inkscape:window-x="1680"
     inkscape:window-y="0"
     inkscape:window-maximized="1"
     inkscape:current-layer="svg2"
     inkscape:snap-bbox="true"
     inkscape:object-nodes="true"
     inkscape:snap-midpoints="true"
     inkscape:snap-grids="false"
     inkscape:snap-bbox-edge-midpoints="true"
     showguides="true"
     inkscape:guide-bbox="true">
    <inkscape:grid
       type="xygrid"
       id="grid2990"
       empspacing="5"
       visible="true"
       enabled="true"
       snapvisiblegridlinesonly="true"
       spacingx="10px"
       spacingy="10px"
       dotted="false" />
    <sodipodi:guide
       orientation="1,0"
       position="55.202458,260.58927"
       id="guide3872" />
    <sodipodi:guide
       orientation="1,0"
       position="265.17816,340"
       id="guide3874" />
    <sodipodi:guide
       orientation="0,1"
       position="317.80107,264.96094"
       id="guide3876" />
    <sodipodi:guide
       orientation="0,1"
       position="325.098,54.759006"
       id="guide3878" />
  </sodipodi:namedview>
  <metadata
     id="metadata2975">image/svg+xmlen<rdf:RDF>
  <cc:Work
     rdf:about="">
    <dc:format>image/svg+xml</dc:format>
    <dc:type
       rdf:resource="http://purl.org/dc/dcmitype/StillImage" />
    <dc:title />
  </cc:Work>
</rdf:RDF>
</metadata>
  <path
     style="color:#000000;fill:#000000;fill-opacity:1;stroke:none;stroke-width:15.17103481;marker:none;visibility:visible;display:inline;overflow:visible;enable-background:accumulate"
     d="m 176.77367,122.52203 27.02979,-32.35835 27.38899,32.35568 -16.66822,10e-4 0,83.799 -20.66718,0 -0.006,-83.79423 -17.07738,-0.003"
     id="path3772-2"
     inkscape:path-effect="#path-effect3775-0-3"
     inkscape:original-d="m 176.77367,122.52203 27.02979,-32.35835 27.38899,32.35568 -16.66822,10e-4 0,83.799 -20.66718,0 -0.006,-83.79423 z"
     inkscape:connector-curvature="0"
     sodipodi:nodetypes="cccccccc" />
  <path
     style="color:#000000;fill:#000000;fill-opacity:1;stroke:none;stroke-width:15.17103481;marker:none;visibility:visible;display:inline;overflow:visible;enable-background:accumulate"
     d="m 176.77367,174.52203 27.02979,-32.35835 27.38899,32.35568 -16.66822,0.001 0,7.799 -20.66718,0 -0.006,-7.79423 -17.07738,-0.003"
     id="path3772-5-6"
     inkscape:path-effect="#path-effect3775-0-2-5"
     inkscape:original-d="m 176.77367,174.52203 27.02979,-32.35835 27.38899,32.35568 -16.66822,0.001 0,7.799 -20.66718,0 -0.006,-7.79423 z"
     inkscape:connector-curvature="0"
     sodipodi:nodetypes="cccccccc" />
  <path
     style="color:#000000;fill:#000000;fill-opacity:1;stroke:none;stroke-width:15.17103481;marker:none;visibility:visible;display:inline;overflow:visible;enable-background:accumulate"
     d="m 92.44316,146.53474 27.02979,-32.35835 27.38899,32.35568 -16.66822,0.001 0,83.799 -20.66719,0 -0.006,-83.79423 -17.07737,-0.003"
     id="path3772-2-6"
     inkscape:path-effect="#path-effect3775-0-3-3"
     inkscape:original-d="m 92.44316,146.53474 27.02979,-32.35835 27.38899,32.35568 -16.66822,0.001 0,83.799 -20.66719,0 -0.006,-83.79423 z"
     inkscape:connector-curvature="0"
     sodipodi:nodetypes="cccccccc" />
  <path
     style="color:#000000;fill:#000000;fill-opacity:1;stroke:none;stroke-width:15.17103481;marker:none;visibility:visible;display:inline;overflow:visible;enable-background:accumulate"
     d="m 92.44316,194.53474 27.02979,-32.35835 27.38899,32.35568 -16.66822,0.001 0,7.799 -20.66719,0 -0.006,-7.79423 -17.07737,-0.003"
     id="path3772-5-6-9"
     inkscape:path-effect="#path-effect3775-0-2-5-5"
     inkscape:original-d="m 92.44316,194.53474 27.02979,-32.35835 27.38899,32.35568 -16.66822,0.001 0,7.799 -20.66719,0 -0.006,-7.79423 z"
     inkscape:connector-curvature="0"
     sodipodi:nodetypes="cccccccc" />
</svg>

<svg width="320" height="320" viewBox="0 0 320 320" fill="none" xmlns="http://www.w3.org/2000/svg">
<path d="M176.774 122.522L203.803 90.1641L231.192 122.52L214.524 122.521V206.32H193.857L193.851 122.526L176.774 122.523" fill="black"/>
<path d="M176.774 174.522L203.803 142.164L231.192 174.52L214.524 174.521V182.32H193.857L193.851 174.526L176.774 174.523" fill="black"/>
<path d="M92.4431 146.535L119.473 114.177L146.862 146.532L130.194 146.533V230.332H109.526L109.52 146.538L92.4431 146.535" fill="black"/>
<path d="M92.4431 194.535L119.473 162.177L146.862 194.532L130.194 194.533V202.332H109.526L109.52 194.538L92.4431 194.535" fill="black"/>
</svg>
